svg/SJJB-OpenStreetMapIcons/shopping/car.svg

<?xml version="1.0" encoding="UTF-8" standalone="no"?>
<!-- Created with Inkscape (http://www.inkscape.org/) -->
<svg
   xmlns:dc="http://purl.org/dc/elements/1.1/"
   xmlns:cc="http://creativecommons.org/ns#"
   xmlns:rdf="http://www.w3.org/1999/02/22-rdf-syntax-ns#"
   xmlns:svg="http://www.w3.org/2000/svg"
   xmlns="http://www.w3.org/2000/svg"
   xmlns:sodipodi="http://sodipodi.sourceforge.net/DTD/sodipodi-0.dtd"
   xmlns:inkscape="http://www.inkscape.org/namespaces/inkscape"
   version="1.0"
   width="580"
   height="580"
   id="svg2"
   sodipodi:version="0.32"
   inkscape:version="0.46"
   sodipodi:docname="shopping_car.svg"
   inkscape:output_extension="org.inkscape.output.svg.inkscape">
  <metadata
     id="metadata10">
    <rdf:RDF>
      <cc:Work
         rdf:about="">
        <dc:format>image/svg+xml</dc:format>
        <dc:type
           rdf:resource="http://purl.org/dc/dcmitype/StillImage" />
        <cc:license
           rdf:resource="http://web.resource.org/cc/PublicDomain" />
        <dc:language>en</dc:language>
      </cc:Work>
    </rdf:RDF>
  </metadata>
  <sodipodi:namedview
     inkscape:window-height="1005"
     inkscape:window-width="1280"
     inkscape:pageshadow="2"
     inkscape:pageopacity="0.0"
     guidetolerance="10.0"
     gridtolerance="10.0"
     objecttolerance="10.0"
     borderopacity="1.0"
     bordercolor="#666666"
     pagecolor="#ffffff"
     id="base"
     showgrid="false"
     inkscape:zoom="0.70710678"
     inkscape:cx="-28.16038"
     inkscape:cy="399.03428"
     inkscape:window-x="112"
     inkscape:window-y="18"
     inkscape:current-layer="svg2" />
  <defs
     id="defs4">
    <inkscape:perspective
       sodipodi:type="inkscape:persp3d"
       inkscape:vp_x="0 : 290 : 1"
       inkscape:vp_y="0 : 1000 : 0"
       inkscape:vp_z="580 : 290 : 1"
       inkscape:persp3d-origin="290 : 193.33333 : 1"
       id="perspective12" />
    <style
       type="text/css"
       id="style6">
   
    .fil0 {fill:#EF7900}
   
  </style>
    <inkscape:perspective
       id="perspective6807"
       inkscape:persp3d-origin="29.116032 : 19.410688 : 1"
       inkscape:vp_z="58.232063 : 29.116032 : 1"
       inkscape:vp_y="0 : 1000 : 0"
       inkscape:vp_x="0 : 29.116032 : 1"
       sodipodi:type="inkscape:persp3d" />
    <inkscape:perspective
       id="perspective6954"
       inkscape:persp3d-origin="290 : 193.33333 : 1"
       inkscape:vp_z="580 : 290 : 1"
       inkscape:vp_y="0 : 1000 : 0"
       inkscape:vp_x="0 : 290 : 1"
       sodipodi:type="inkscape:persp3d" />
    <marker
       viewBox="0 0 10 10"
       refY="5"
       refX="10"
       orient="auto"
       markerWidth="4"
       markerUnits="strokeWidth"
       markerHeight="3"
       id="ArrowStart">
      <path
         id="path2295"
         d="M 10 0 L 0 5 L 10 10 z" />
    </marker>
    <marker
       viewBox="0 0 10 10"
       refY="5"
       refX="0"
       orient="auto"
       markerWidth="4"
       markerUnits="strokeWidth"
       markerHeight="3"
       id="ArrowEnd">
      <path
         id="path2292"
         d="M 0 0 L 10 5 L 0 10 z" />
    </marker>
    <inkscape:perspective
       id="perspective7597"
       inkscape:persp3d-origin="178.5405 : 158.483 : 1"
       inkscape:vp_z="357.08099 : 237.7245 : 1"
       inkscape:vp_y="0 : 1000 : 0"
       inkscape:vp_x="0 : 237.7245 : 1"
       sodipodi:type="inkscape:persp3d" />
  </defs>
  <g
     id="g1327">
    <path
       d="M 66.275,1.768 C 24.94,1.768 1.704,23.139 1.704,66.804 L 1.704,516.927 C 1.704,557.771 22.598,579.156 63.896,579.156 L 515.92,579.156 C 557.227,579.156 578.149,558.84 578.149,516.927 L 578.149,66.804 C 578.149,24.203 557.227,1.768 514.627,1.768 C 514.624,1.768 66.133,1.625 66.275,1.768 z"
       style="fill:#111111;stroke:#eeeeee;stroke-width:3.40799999"
       id="path1329" />
  </g>
  <path
     style="fill:#ffffff;stroke:none"
     d="M 183.48455,89.608679 C 151.75504,89.608679 134.92324,106.93092 127.15266,127.20724 L 85.90418,233.71452 C 69.552532,235.81123 40.566027,255.00504 40.566027,291.36566 L 40.566027,426.80843 L 80.71514,426.80843 L 80.71514,470.12376 C 80.71514,523.41432 156.13213,522.7867 156.13214,470.12376 L 156.13214,426.80843 L 291.79481,426.80843 L 291.83886,426.80843 L 427.50145,426.80843 L 427.50145,470.12376 C 427.50145,522.7867 502.91809,523.41432 502.91852,470.12376 L 502.91852,426.80843 L 543.06757,426.80843 L 543.06757,291.36566 C 543.06757,255.00507 514.08126,235.81123 497.72933,233.71452 L 456.43696,127.20724 C 448.66641,106.93092 431.83476,89.608679 400.10501,89.608679 L 341.79438,89.608679 L 242.49883,89.608679 L 183.48455,89.608679 z M 183.00082,128.39457 L 291.70687,128.39457 L 291.79481,128.39457 L 291.83886,128.39457 L 400.5888,128.39457 C 414.18652,128.52119 420.01024,137.02489 423.89549,148.79891 L 454.98571,232.61515 L 291.83886,232.61515 L 291.79481,232.61515 L 291.70687,232.61515 L 128.60384,232.61515 L 159.6941,148.79891 C 163.5794,137.02489 169.40165,128.52119 183.00082,128.39457 z M 119.63296,273.37991 C 138.87358,273.37991 154.4611,289.4332 154.4611,309.26344 C 154.46109,329.0951 138.87358,345.19097 119.63296,345.19097 C 100.39375,345.19097 84.804809,329.09507 84.804809,309.26344 C 84.804809,289.43325 100.39375,273.37991 119.63296,273.37991 z M 464.00063,273.37991 C 483.24126,273.37991 498.82891,289.43325 498.82878,309.26344 C 498.82878,329.09507 483.24126,345.19097 464.00063,345.19097 C 444.76144,345.19097 429.12843,329.0951 429.12843,309.26344 C 429.12843,289.4332 444.76144,273.37991 464.00063,273.37991 z"
     id="path2301" />
  <g
     id="g2319"
     transform="translate(879.29125,36.805119)">
    <path
       id="path2323"
       style="fill:#ffffff;stroke:none"
       d="" />
  </g>
  <g
     id="g2325"
     transform="translate(879.29125,36.805119)">
    <path
       id="path2329"
       style="fill:#ffffff;stroke:none"
       d="" />
  </g>
</svg>

<svg xmlns="http://www.w3.org/2000/svg" viewBox="0 0 580 580"><path d="m66.28 1.768c-41.34 0-64.57 21.371-64.57 65.04v450.12c0 40.844 20.894 62.23 62.19 62.23h452.02c41.31 0 62.23-20.316 62.23-62.23v-450.12c0-42.601-20.922-65.04-63.52-65.04-.003 0-448.49-.143-448.35 0z" fill="#111" stroke="#eee" stroke-width="3.408"/><path d="m183.48 89.61c-31.73 0-48.561 17.322-56.33 37.599l-41.25 106.51c-16.352 2.097-45.34 21.291-45.34 57.651v135.44h40.15v43.32c0 53.29 75.42 52.663 75.42 0v-43.32h135.66.044 135.66v43.32c0 52.663 75.42 53.29 75.42 0v-43.32h40.15v-135.44c0-36.36-28.986-55.55-45.34-57.651l-41.29-106.51c-7.771-20.276-24.602-37.599-56.33-37.599h-58.31-99.3-59.01m-.484 38.786h108.71.088.044 108.75c13.598.127 19.421 8.63 23.307 20.404l31.09 83.82h-163.15-.044-.088-163.1l31.09-83.82c3.885-11.774 9.708-20.278 23.307-20.404m-63.37 144.99c19.241 0 34.828 16.05 34.828 35.884 0 19.832-15.588 35.928-34.828 35.928-19.239 0-34.828-16.1-34.828-35.928 0-19.83 15.589-35.884 34.828-35.884m344.37 0c19.241 0 34.828 16.05 34.828 35.884 0 19.832-15.588 35.928-34.828 35.928-19.239 0-34.872-16.1-34.872-35.928 0-19.83 15.633-35.884 34.872-35.884" fill="#fff"/></svg>
